X:1
T:Title
L:1/8
M:4/4
K:Eb
V:1 treble nm="Grand Piano"
V:1
 z4 z2[Q:1/4=100] EF | G2 G2 G2 GF | AGFE z2 EF | G2 G2 G2 GF | AGFE z2 DE | F2 A2 GF F2 | E6 DE | %7
 F2 AG G2 FF | E4 z2 EF | G2 GG G2 GF | AGFE z2 EF | GGGG G2 GF | AGFE z2 DE | F2 A2 G2 FF | %14
 E4 z2 DE | F2 A2 GF F2 | E6 z2 |] %17

